X:1
T: The Roselath Cross
C:
R:Jig
Q:180
K:G
M:6/8
L:1/16
D2|G4B2 F4B2|E4B2 D4d2|G3dB2 A2G2A2|B6-B4B2|c4e2 B4d2|A4c2 G4B2|F2D2F2 A2G2E2|D6-D4D2|
G4B2 F4B2|E4B2 D4d2|D3GB2 A2G2A2|B6-B4B2|A4e2 B4d2|c4d2 e2c2e2|d4B2 d2c2A2|G6-G4B2|
E4B2 ^D4B2|E4B2 B,4E2|C3EC2 E2D2C2|B,6-B,4B,2|D4F2 ^C4F2|D4E2 F2D2B2|A4F2 A2G2E2|D6-D4D2|
G4B2 F4B2|E3GB2 D4B2|G3dB2 A2G2A2|B6-B4B2|A4e2 B4e2|c3de2 f2g2a2|g2e2d2 c2B2A2|G6-G4||
